icons/urgent-care-sign-two-color.svg

<?xml version="1.0" encoding="UTF-8"?><svg id="uuid-736c48b2-72fc-41c7-8e10-78388d80696a" xmlns="http://www.w3.org/2000/svg" viewBox="0 0 50 50"><path d="M39.96,9.91h-.76v1.37h.76c.24,0,.42-.06,.55-.18s.19-.29,.19-.5-.06-.38-.18-.51c-.12-.12-.31-.19-.56-.19Z"/><polygon points="35.13 12.01 36.27 12.01 35.69 10.3 35.13 12.01"/><path d="M44.71,4.25H7.69c-2.2,0-3.99,1.79-3.99,3.99V45.26c0,2.2,1.79,3.99,3.99,3.99H44.71c2.2,0,3.99-1.79,3.99-3.99V8.24c0-2.2-1.79-3.99-3.99-3.99Zm-9.55,29.74h-6.83c-.28,0-.5,.22-.5,.5v6.83h-6.47v-6.83c0-.28-.22-.5-.5-.5h-6.83v-6.47h6.83c.28,0,.5-.22,.5-.5v-6.83h6.47v6.83c0,.28,.22,.5,.5,.5h6.83v6.47Z" fill="#ffcd00"/><path d="M6.13,12.18c0,.56-.28,.83-.81,.83-.25,0-.45-.07-.59-.21-.14-.14-.21-.35-.21-.65v-3.01h-.94v3.04c0,.49,.17,.88,.48,1.16,.31,.28,.74,.42,1.27,.42s.97-.15,1.28-.44c.31-.29,.47-.69,.47-1.18v-3.01h-.94v3.04Z"/><path d="M11.03,11.31c.13-.21,.2-.47,.2-.78,0-.44-.15-.78-.44-1.02s-.71-.36-1.25-.36h-1.7v4.56h.94v-1.67h.75l.86,1.67h1.01v-.04l-.99-1.86c.27-.12,.48-.29,.61-.5Zm-.93-.21c-.13,.12-.31,.18-.55,.18h-.76v-1.37h.76c.25,0,.44,.06,.56,.19,.12,.12,.18,.29,.18,.51s-.06,.38-.19,.5Z"/><path d="M14.83,13.61c.31-.11,.55-.27,.72-.47v-1.82h-1.8v.69h.86v.79c-.15,.15-.4,.23-.76,.23s-.62-.12-.8-.37c-.18-.24-.27-.61-.27-1.08v-.29c0-.47,.09-.83,.25-1.07,.17-.24,.41-.36,.73-.36,.25,0,.45,.06,.59,.18,.14,.12,.24,.31,.28,.57h.92c-.06-.49-.24-.87-.54-1.13-.31-.26-.73-.39-1.27-.39-.39,0-.73,.09-1.02,.26-.29,.18-.51,.43-.66,.76-.15,.33-.23,.73-.23,1.18v.31c0,.44,.09,.83,.25,1.16,.16,.33,.39,.58,.69,.75,.3,.17,.64,.26,1.04,.26s.72-.06,1.03-.17Z"/><polygon points="19.37 12.96 17.25 12.96 17.25 11.73 19.06 11.73 19.06 11 17.25 11 17.25 9.91 19.37 9.91 19.37 9.15 16.31 9.15 16.31 13.71 19.37 13.71 19.37 12.96"/><polygon points="20.86 10.71 22.69 13.71 23.63 13.71 23.63 9.15 22.7 9.15 22.7 12.16 20.86 9.15 19.92 9.15 19.92 13.71 20.86 13.71 20.86 10.71"/><polygon points="25.46 13.71 26.4 13.71 26.4 9.91 27.8 9.91 27.8 9.15 24.08 9.15 24.08 9.91 25.46 9.91 25.46 13.71"/><path d="M31.49,13.77c.53,0,.97-.14,1.29-.42,.33-.28,.51-.67,.54-1.16h-.94c-.02,.28-.1,.48-.25,.62-.14,.13-.36,.2-.65,.2-.32,0-.56-.11-.71-.34-.15-.23-.22-.59-.22-1.08v-.34c0-.47,.08-.82,.24-1.04s.39-.34,.7-.34c.29,0,.5,.07,.64,.2,.14,.13,.22,.35,.25,.64h.94c-.05-.51-.24-.91-.56-1.19-.32-.28-.75-.42-1.27-.42-.38,0-.71,.09-1,.27-.29,.18-.51,.44-.66,.77-.15,.33-.23,.72-.23,1.16v.28c0,.69,.17,1.23,.5,1.62,.34,.39,.8,.59,1.38,.59Z"/><path d="M35.26,9.15l-1.7,4.56h1l.31-.94h1.65l.32,.94h1l-1.71-4.56h-.87Zm-.13,2.86l.57-1.71,.57,1.71h-1.14Z"/><path d="M41.44,11.31c.13-.21,.2-.47,.2-.78,0-.44-.15-.78-.44-1.02s-.71-.36-1.25-.36h-1.7v4.56h.94v-1.67h.75l.86,1.67h1.01v-.04l-.99-1.86c.27-.12,.48-.29,.61-.5Zm-.93-.21c-.13,.12-.31,.18-.55,.18h-.76v-1.37h.76c.25,0,.44,.06,.56,.19,.12,.12,.18,.29,.18,.51s-.06,.38-.19,.5Z"/><polygon points="43.3 11.73 45.1 11.73 45.1 11 43.3 11 43.3 9.91 45.41 9.91 45.41 9.15 42.36 9.15 42.36 13.71 45.42 13.71 45.42 12.96 43.3 12.96 43.3 11.73"/><path d="M42.96,1.5H5.94C3.19,1.5,.95,3.74,.95,6.49V43.51c0,2.75,2.24,4.99,4.99,4.99H42.96c2.75,0,4.99-2.24,4.99-4.99V6.49c0-2.75-2.24-4.99-4.99-4.99Zm3.99,42.01c0,2.2-1.79,3.99-3.99,3.99H5.94c-2.2,0-3.99-1.79-3.99-3.99V6.49c0-2.2,1.79-3.99,3.99-3.99H42.96c2.2,0,3.99,1.79,3.99,3.99V43.51Z"/><path d="M35.65,26.52h-6.83v-6.83c0-.28-.22-.5-.5-.5h-7.47c-.28,0-.5,.22-.5,.5v6.83h-6.83c-.28,0-.5,.22-.5,.5v7.47c0,.28,.22,.5,.5,.5h6.83v6.83c0,.28,.22,.5,.5,.5h7.47c.28,0,.5-.22,.5-.5v-6.83h6.83c.28,0,.5-.22,.5-.5v-7.47c0-.28-.22-.5-.5-.5Zm-.5,7.47h-6.83c-.28,0-.5,.22-.5,.5v6.83h-6.47v-6.83c0-.28-.22-.5-.5-.5h-6.83v-6.47h6.83c.28,0,.5-.22,.5-.5v-6.83h6.47v6.83c0,.28,.22,.5,.5,.5h6.83v6.47Z"/></svg>

<svg id="f09fbe5e-4c5d-477a-a59b-c6ccaa691a85" data-name="ICONS" xmlns="http://www.w3.org/2000/svg" viewBox="0 0 50 50"><path d="M40,9.91H39.2v1.37H40a.78.78,0,0,0,.55-.18.65.65,0,0,0,.19-.5.72.72,0,0,0-.18-.51A.77.77,0,0,0,40,9.91Z" fill="#231f20"/><polygon points="35.13 12.01 36.27 12.01 35.69 10.3 35.13 12.01" fill="#231f20"/><path d="M44.71,4.25h-37a4,4,0,0,0-4,4v37a4,4,0,0,0,4,4h37a4,4,0,0,0,4-4v-37A4,4,0,0,0,44.71,4.25ZM35.15,34H28.32a.51.51,0,0,0-.5.5v6.83H21.35V34.49a.5.5,0,0,0-.5-.5H14V27.52h6.83a.5.5,0,0,0,.5-.5V20.19h6.47V27a.5.5,0,0,0,.5.5h6.83Z" fill="#fdd600"/><path d="M6.13,12.18c0,.56-.28.84-.8.84a.83.83,0,0,1-.6-.21.86.86,0,0,1-.21-.65v-3H3.58v3a1.47,1.47,0,0,0,.48,1.16,1.82,1.82,0,0,0,1.27.42,1.82,1.82,0,0,0,1.28-.43,1.55,1.55,0,0,0,.46-1.19v-3H6.13Z" fill="#231f20"/><path d="M11,11.31a1.46,1.46,0,0,0,.2-.78,1.25,1.25,0,0,0-.44-1,1.92,1.92,0,0,0-1.25-.36H7.85v4.56h.94V12h.75l.85,1.67h1v0l-1-1.87A1.42,1.42,0,0,0,11,11.31Zm-.94-.21a.78.78,0,0,1-.55.18H8.79V9.91h.75a.77.77,0,0,1,.56.18.69.69,0,0,1,.19.51A.65.65,0,0,1,10.09,11.1Z" fill="#231f20"/><path d="M14.83,13.61a1.66,1.66,0,0,0,.72-.48V11.31H13.76V12h.85v.78a1,1,0,0,1-.75.23.92.92,0,0,1-.8-.37,1.79,1.79,0,0,1-.28-1.08v-.29A2,2,0,0,1,13,10.2,1,1,0,0,1,14.36,10a1,1,0,0,1,.28.57h.91A1.67,1.67,0,0,0,15,9.47a1.91,1.91,0,0,0-1.27-.38,1.89,1.89,0,0,0-1,.26,1.69,1.69,0,0,0-.66.76,2.9,2.9,0,0,0-.23,1.19v.31a2.57,2.57,0,0,0,.25,1.15,1.76,1.76,0,0,0,.69.76,2.05,2.05,0,0,0,1,.25A3,3,0,0,0,14.83,13.61Z" fill="#231f20"/><polygon points="19.37 12.96 17.25 12.96 17.25 11.73 19.06 11.73 19.06 11 17.25 11 17.25 9.91 19.37 9.91 19.37 9.15 16.31 9.15 16.31 13.71 19.37 13.71 19.37 12.96" fill="#231f20"/><polygon points="20.86 10.71 22.69 13.71 23.63 13.71 23.63 9.15 22.7 9.15 22.7 12.16 20.86 9.15 19.92 9.15 19.92 13.71 20.86 13.71 20.86 10.71" fill="#231f20"/><polygon points="25.46 13.71 26.4 13.71 26.4 9.91 27.8 9.91 27.8 9.15 24.08 9.15 24.08 9.91 25.46 9.91 25.46 13.71" fill="#231f20"/><path d="M31.49,13.77a1.89,1.89,0,0,0,1.29-.42,1.62,1.62,0,0,0,.55-1.16h-.94a.78.78,0,0,1-.9.82.79.79,0,0,1-.71-.35,2,2,0,0,1-.22-1.08v-.34a1.85,1.85,0,0,1,.24-1.05.81.81,0,0,1,.7-.33.89.89,0,0,1,.65.2.92.92,0,0,1,.24.64h.94a1.74,1.74,0,0,0-.55-1.19,1.9,1.9,0,0,0-1.28-.42,1.84,1.84,0,0,0-1,.26,1.72,1.72,0,0,0-.66.77,2.67,2.67,0,0,0-.23,1.16v.28a2.38,2.38,0,0,0,.5,1.62A1.71,1.71,0,0,0,31.49,13.77Z" fill="#231f20"/><path d="M35.26,9.15l-1.7,4.56h1l.31-.94h1.65l.32.94h1L36.13,9.15ZM35.13,12l.56-1.71L36.27,12Z" fill="#231f20"/><path d="M41.44,11.31a1.37,1.37,0,0,0,.2-.78,1.25,1.25,0,0,0-.43-1A1.94,1.94,0,0,0,40,9.15h-1.7v4.56h.94V12H40l.86,1.67h1v0l-1-1.87A1.38,1.38,0,0,0,41.44,11.31Zm-.93-.21a.78.78,0,0,1-.55.18H39.2V9.91H40a.77.77,0,0,1,.56.18.72.72,0,0,1,.18.51A.65.65,0,0,1,40.51,11.1Z" fill="#231f20"/><polygon points="43.3 11.73 45.1 11.73 45.1 11 43.3 11 43.3 9.91 45.41 9.91 45.41 9.15 42.36 9.15 42.36 13.71 45.42 13.71 45.42 12.96 43.3 12.96 43.3 11.73" fill="#231f20"/><path d="M43,1.5h-37a5,5,0,0,0-5,5v37a5,5,0,0,0,5,5H43a5,5,0,0,0,5-5v-37A5,5,0,0,0,43,1.5Zm4,42a4,4,0,0,1-4,4h-37a4,4,0,0,1-4-4v-37a4,4,0,0,1,4-4H43a4,4,0,0,1,4,4Z" fill="#231f20"/><path d="M35.65,26.52H28.82V19.69a.5.5,0,0,0-.5-.5H20.85a.5.5,0,0,0-.5.5v6.83H13.52a.5.5,0,0,0-.5.5v7.47a.5.5,0,0,0,.5.5h6.83v6.83a.5.5,0,0,0,.5.5h7.47a.5.5,0,0,0,.5-.5V35h6.83a.5.5,0,0,0,.5-.5V27A.5.5,0,0,0,35.65,26.52ZM35.15,34H28.32a.51.51,0,0,0-.5.5v6.83H21.35V34.49a.5.5,0,0,0-.5-.5H14V27.52h6.83a.5.5,0,0,0,.5-.5V20.19h6.47V27a.5.5,0,0,0,.5.5h6.83Z" fill="#231f20"/></svg>
